X: 20
T:Tell Me Ma (Muckiarse)
M:4/8
L:1/8
R:Reel
K:G
D2 G2 B2 BB | c2 c2 B3c | B2 A2 AGAB | A2 G2 G4 | D2 G2 B2 BB | c2 c2 B3
c | B2 A2 AGAB | A2 G2 G4 :|
|:d2 de d2 B2 | c2 cB c2 A2 | B2 BcBA G2 | A2 F2 E2 D2 | d2 de d2 B2 | c
2 cB c4 | B2 G2 A2 AB | A2 G2 G4 :|
